X:30
T:Maids of Castlebarr
R:reel
D:"Chasing the bear" by Jon Hicks
Z:Transcribed by Lionel Gueganton
L:1/8
M:4/4
K:D
   z6 A/B/c 
|: d2 D/D/D ED B,C | A,B, CA BA FA  | dA cA BA AG       | D/E/F AF BA FA      |
   d2 D/D/D ED B,C | A,B, CA BA FA  | A/B/c/d/ ec dB AG |1 F/E/D EF DA A/B/c :|2 F/E/D EF D2 ag
|: fd ab ag fd     | dd d/d/d bd ag | ef ga gf ed       | =c2 c/c/c ac gg     |
   fg af bf ad     | gf ed Bc d2    | de fe dc BA       |1 F/E/D EF D2 ag    :|2 F/E/D EF D2 A/B/c

